assets/images/icon/event-icons/talks.svg

<svg width="101" height="101" viewBox="0 0 101 101" fill="none" xmlns="http://www.w3.org/2000/svg">
<g opacity="0.3">
<path d="M45.7107 3.47194L43.5719 3.17729C43.7091 2.17396 44.1434 1.37129 44.8267 0.855653C45.5075 0.340016 46.399 0.14189 47.4024 0.279054L47.1077 2.4178C46.8131 2.37716 46.4016 2.37208 46.1298 2.57783C45.8554 2.78612 45.7513 3.17983 45.7107 3.47194Z" fill="#00003F"/>
<path d="M55.3425 3.82253C55.3247 2.59059 54.7176 2.4331 54.1334 2.44326L54.1004 0.284195C54.1207 0.284195 54.1435 0.284195 54.1639 0.284195C56.1629 0.284195 57.4685 1.65584 57.5015 3.79205L55.3425 3.82253Z" fill="#00003F"/>
<path d="M54.6111 2.44579H54.6085L46.9578 2.42292C46.3609 2.42038 45.8783 1.93523 45.8808 1.34085C45.8834 0.74647 46.366 0.263854 46.9604 0.263854H46.9629L54.6136 0.286715C55.2105 0.289255 55.6932 0.774411 55.6906 1.36879C55.6881 1.96317 55.2055 2.44579 54.6111 2.44579Z" fill="#00003F"/>
<path d="M56.2239 14.3207C56.2162 14.3207 56.2086 14.3207 56.2035 14.3207C55.6066 14.3105 55.1342 13.8152 55.1443 13.2208L55.3348 3.34496C55.345 2.75567 55.8276 2.28575 56.4144 2.28575C56.422 2.28575 56.4296 2.28575 56.4347 2.28575C57.0316 2.29591 57.5041 2.79123 57.4939 3.38561L57.3034 13.2614C57.2907 13.8507 56.8106 14.3207 56.2239 14.3207Z" fill="#00003F"/>
<path d="M56.2238 14.4349C56.2187 14.4349 56.2136 14.4349 56.2111 14.4349L44.2727 14.285C43.6758 14.2774 43.1983 13.7872 43.2059 13.1928C43.2135 12.5959 43.6936 12.1107 44.3006 12.1259L56.239 12.2758C56.836 12.2834 57.3135 12.7737 57.3059 13.368C57.2957 13.9599 56.8131 14.4349 56.2238 14.4349Z" fill="#00003F"/>
<path d="M44.2855 14.2851C44.2728 14.2851 44.2601 14.2851 44.2474 14.2851C43.6504 14.2648 43.1856 13.7644 43.2059 13.1675L43.559 3.26876C43.5793 2.67184 44.0823 2.21209 44.6766 2.22733C45.2736 2.24765 45.7384 2.74805 45.7181 3.34497L45.365 13.2437C45.3421 13.8279 44.8646 14.2851 44.2855 14.2851Z" fill="#00003F"/>
<path d="M90.2882 6.5481L88.5508 5.26536C89.7725 3.60669 91.637 3.32728 93.3007 4.5516L92.018 6.28902C91.3194 5.77592 90.8013 5.85466 90.2882 6.5481Z" fill="#00003F"/>
<path d="M100.492 12.4691L98.5792 11.4632C99.1532 10.3735 98.696 9.94679 98.1753 9.67246L99.1812 7.75978C100.985 8.70723 101.498 10.5564 100.492 12.4691Z" fill="#00003F"/>
<path d="M99.1129 10.0357C98.9376 10.0357 98.7598 9.99249 98.5947 9.90359L91.8863 6.22555C91.3631 5.93852 91.1726 5.28318 91.4596 4.75992C91.7466 4.23666 92.402 4.04616 92.9252 4.33319L99.6336 8.01122C100.157 8.29825 100.347 8.95359 100.06 9.47685C99.8647 9.835 99.4939 10.0357 99.1129 10.0357Z" fill="#00003F"/>
<path d="M94.8481 21.2348C94.6678 21.2348 94.4823 21.1891 94.3147 21.0926C93.7965 20.7979 93.6162 20.1375 93.9108 19.6193L98.803 11.0389C99.0977 10.5208 99.7581 10.3404 100.276 10.6351C100.794 10.9297 100.975 11.5901 100.68 12.1083L95.7879 20.6887C95.5873 21.0392 95.224 21.2348 94.8481 21.2348Z" fill="#00003F"/>
<path d="M94.792 21.3364C94.6116 21.3364 94.4313 21.2907 94.2636 21.1993L83.8518 15.3571C83.3311 15.065 83.1457 14.4071 83.4378 13.8864C83.7299 13.3656 84.3878 13.1802 84.9085 13.4723L95.3203 19.3145C95.841 19.6066 96.0265 20.2645 95.7344 20.7852C95.5362 21.1383 95.1705 21.3364 94.792 21.3364Z" fill="#00003F"/>
<path d="M84.3804 15.4943C84.1925 15.4943 84.0045 15.4461 83.8318 15.3445C83.3187 15.0397 83.1485 14.3792 83.4533 13.8636L88.4979 5.34162C88.8027 4.82853 89.4631 4.65834 89.9788 4.96315C90.4919 5.26796 90.662 5.92838 90.3572 6.44402L85.3126 14.966C85.1094 15.3038 84.7487 15.4943 84.3804 15.4943Z" fill="#00003F"/>
<path d="M0.239772 10.5689C-0.44351 8.62574 0.374397 6.92642 2.32264 6.24314L3.03894 8.28029C2.22104 8.56732 1.99243 9.03977 2.27946 9.8526L0.239772 10.5689Z" fill="#00003F"/>
<path d="M11.0045 5.76309C10.4254 4.67594 9.81574 4.8131 9.29756 5.08743L8.28153 3.17983C10.0774 2.22476 11.8961 2.83946 12.9096 4.74706L11.0045 5.76309Z" fill="#00003F"/>
<path d="M2.41683 8.46834C2.02312 8.46834 1.64465 8.25243 1.45414 7.87904C1.18235 7.34816 1.39318 6.6979 1.9266 6.42611L8.74164 2.95128C9.27251 2.67949 9.92278 2.89032 10.1946 3.42373C10.4664 3.95461 10.2555 4.60487 9.72211 4.87666L2.90707 8.35149C2.74958 8.43023 2.58194 8.46834 2.41683 8.46834Z" fill="#00003F"/>
<path d="M16.0897 14.8185C15.6909 14.8185 15.3073 14.595 15.1193 14.2139L10.7758 5.34144C10.5142 4.80548 10.7352 4.15776 11.2711 3.89613C11.8071 3.6345 12.4548 3.85549 12.7164 4.39144L17.06 13.264C17.3216 13.7999 17.1006 14.4476 16.5647 14.7093C16.4122 14.7829 16.2497 14.8185 16.0897 14.8185Z" fill="#00003F"/>
<path d="M5.45473 20.2441C5.05848 20.2441 4.67493 20.0256 4.48696 19.6446C4.22025 19.1112 4.4387 18.4635 4.97212 18.1968L15.6608 12.8753C16.1942 12.6086 16.8419 12.827 17.1086 13.3605C17.3753 13.8939 17.1569 14.5416 16.6235 14.8083L5.93481 20.1298C5.7824 20.206 5.6173 20.2441 5.45473 20.2441Z" fill="#00003F"/>
<path d="M5.45473 20.2441C5.04832 20.2441 4.65969 20.0155 4.4768 19.6218L0.267888 10.6553C0.0138795 10.1142 0.247567 9.47159 0.786065 9.21759C1.3271 8.96358 1.96974 9.19727 2.22375 9.73576L6.43267 18.7023C6.68668 19.2433 6.45299 19.8859 5.91449 20.1399C5.76463 20.2111 5.60968 20.2441 5.45473 20.2441Z" fill="#00003F"/>
<path d="M77.9277 84.1652C77.854 84.1652 77.7829 84.1576 77.7092 84.1423C77.125 84.0204 76.7491 83.4514 76.871 82.8672L90.1633 18.5193C90.2852 17.9351 90.8592 17.5591 91.4384 17.6811C92.0226 17.803 92.3985 18.372 92.2766 18.9562L78.9844 83.3041C78.8802 83.8146 78.4281 84.1652 77.9277 84.1652Z" fill="#00003F"/>
<path d="M25.262 100.739C24.6422 100.739 24.0758 100.322 23.9107 99.6951L21.6246 90.975C21.429 90.2282 21.8761 89.4662 22.6228 89.2706C23.3671 89.075 24.1342 89.522 24.3272 90.2688L26.6133 98.9889C26.8089 99.7357 26.3618 100.498 25.6151 100.693C25.4982 100.724 25.3788 100.739 25.262 100.739Z" fill="#00003F"/>
<path d="M75.0072 100.739C74.8828 100.739 74.7532 100.721 74.6287 100.686C73.887 100.477 73.4527 99.7052 73.6635 98.9609L76.1198 90.2408C76.3281 89.4991 77.1002 89.0648 77.8419 89.2756C78.5836 89.4839 79.018 90.2561 78.8072 90.9978L76.3509 99.7179C76.1782 100.338 75.6168 100.739 75.0072 100.739Z" fill="#00003F"/>
<path d="M22.5525 84.1651C22.047 84.1651 21.5949 83.8095 21.4933 83.2939L8.87923 19.2C8.76493 18.6158 9.14594 18.0468 9.73016 17.9325C10.3144 17.8156 10.8834 18.1992 10.9977 18.7834L23.6143 82.8773C23.7286 83.4615 23.3475 84.0305 22.7633 84.1448C22.6922 84.1601 22.6211 84.1651 22.5525 84.1651Z" fill="#00003F"/>
<path d="M39.9108 49.5363C39.6035 49.5363 39.2986 49.4067 39.0853 49.1552L12.4144 17.6582C12.0283 17.2035 12.0867 16.5203 12.5414 16.1367C12.9961 15.7506 13.6794 15.809 14.0629 16.2637L40.7338 47.7607C41.1199 48.2154 41.0615 48.8987 40.6068 49.2822C40.4061 49.4524 40.1572 49.5363 39.9108 49.5363Z" fill="#00003F"/>
<path d="M39.406 40.1709C39.312 40.1709 39.2155 40.1582 39.1215 40.1328C38.5449 39.9753 38.207 39.3834 38.362 38.8068L47.7576 13.1189C47.915 12.5423 48.5094 12.2044 49.0835 12.3594C49.6601 12.5169 49.9979 13.1087 49.843 13.6853L40.4474 39.3733C40.3178 39.8559 39.881 40.1709 39.406 40.1709Z" fill="#00003F"/>
<path d="M61.1977 40.9074C60.738 40.9074 60.3112 40.6128 60.1664 40.1505L51.5809 14.2344C51.4031 13.6654 51.718 13.0583 52.287 12.8805C52.856 12.7027 53.4631 13.0177 53.6409 13.5867L62.2265 39.5027C62.4043 40.0717 62.0893 40.6788 61.5203 40.8566C61.4136 40.8922 61.3044 40.9074 61.1977 40.9074Z" fill="#00003F"/>
<path d="M58.4533 52.5843C58.212 52.5843 57.9681 52.503 57.7675 52.3379C57.3077 51.9594 57.2417 51.2787 57.6202 50.8164L86.3231 16.0173C86.7016 15.5575 87.3823 15.4915 87.8446 15.8725C88.3043 16.251 88.3704 16.9317 87.9919 17.394L59.289 52.1931C59.0731 52.4497 58.7632 52.5843 58.4533 52.5843Z" fill="#00003F"/>
<path d="M73.186 84.8587H27.2106C26.4384 84.8587 25.8135 84.2338 25.8135 83.4617V76.5958C25.8135 73.2378 27.1216 70.0805 29.4966 67.7055L35.3795 61.8227C37.1499 60.0523 39.5071 59.0769 42.0116 59.0769H58.3875C60.892 59.0769 63.2467 60.0523 65.0197 61.8227L70.9025 67.7055C73.2775 70.0805 74.5856 73.2378 74.5856 76.5958V83.4617C74.5831 84.2338 73.9582 84.8587 73.186 84.8587ZM28.6076 82.0646H71.789V76.5958C71.789 73.9846 70.773 71.5284 68.9263 69.6817L63.0435 63.7989C61.7989 62.5542 60.1453 61.871 58.3875 61.871H42.0116C40.2539 61.871 38.6003 62.5568 37.3556 63.7989L31.4728 69.6817C29.6262 71.5284 28.6101 73.9846 28.6101 76.5958V82.0646H28.6076Z" fill="#00003F"/>
<path d="M50.1986 56.1225C43.0914 56.1225 37.3077 50.3388 37.3077 43.2316C37.3077 36.1245 43.0914 30.3407 50.1986 30.3407C57.3057 30.3407 63.0895 36.1245 63.0895 43.2316C63.0895 50.3388 57.3057 56.1225 50.1986 56.1225ZM50.1986 33.1348C44.6307 33.1348 40.1018 37.6638 40.1018 43.2316C40.1018 48.7995 44.6307 53.3285 50.1986 53.3285C55.7664 53.3285 60.2954 48.7995 60.2954 43.2316C60.2954 37.6638 55.7664 33.1348 50.1986 33.1348Z" fill="#00003F"/>
<path d="M82.3813 84.8431H17.3324C16.7354 84.8431 16.2528 84.3605 16.2528 83.7635C16.2528 83.1666 16.7354 82.684 17.3324 82.684H82.3813C82.9783 82.684 83.4609 83.1666 83.4609 83.7635C83.4609 84.3605 82.9783 84.8431 82.3813 84.8431Z" fill="#00003F"/>
<path d="M56.8384 91.4904H17.2207C16.6238 91.4904 16.1412 91.0078 16.1412 90.4109C16.1412 89.814 16.6238 89.3314 17.2207 89.3314H56.8409C57.4379 89.3314 57.9205 89.814 57.9205 90.4109C57.9205 91.0078 57.4353 91.4904 56.8384 91.4904Z" fill="#00003F"/>
<path d="M82.4398 91.4041H63.3689C62.772 91.4041 62.2893 90.9215 62.2893 90.3246C62.2893 89.7277 62.772 89.245 63.3689 89.245H82.4398C83.0367 89.245 83.5193 89.7277 83.5193 90.3246C83.5193 90.9215 83.0342 91.4041 82.4398 91.4041Z" fill="#00003F"/>
<path d="M82.5365 91.3126C82.2368 91.3126 81.9726 91.1856 81.8075 91.0383C81.4341 90.703 81.2791 90.0807 81.7033 89.5371C82.2723 88.8107 83.4077 86.87 81.7084 84.5738C81.3528 84.0937 81.4544 83.4181 81.9345 83.0624C82.4146 82.7068 83.0902 82.8084 83.4458 83.2885C85.5008 86.0623 84.8454 88.9173 83.517 90.7233C83.4662 90.8122 83.4027 90.8986 83.3239 90.9723C83.0648 91.2212 82.7905 91.3126 82.5365 91.3126Z" fill="#00003F"/>
<path d="M17.0988 91.3965C16.8448 91.3965 16.5705 91.3051 16.3114 91.0561C16.2326 90.9799 16.1691 90.8961 16.1183 90.8047C14.7848 88.9885 14.1396 86.1411 16.1894 83.3724C16.5451 82.8923 17.2207 82.7932 17.7008 83.1463C18.1809 83.5019 18.2799 84.1776 17.9269 84.6577C16.225 86.9539 17.363 88.8945 17.9319 89.621C18.3561 90.1646 18.2012 90.7869 17.8278 91.1222C17.6627 91.2695 17.396 91.3965 17.0988 91.3965Z" fill="#00003F"/>
</g>
</svg>

<svg width="101" height="101" fill="none" xmlns="http://www.w3.org/2000/svg"><g opacity=".3" fill="#00003F"><path d="m45.71 3.472-2.138-.295c.137-1.003.571-1.806 1.255-2.321.68-.516 1.572-.714 2.575-.577l-.294 2.139c-.295-.04-.706-.046-.978.16-.275.208-.379.602-.42.894Zm9.633.351c-.018-1.232-.625-1.39-1.21-1.38L54.1.284h.064c1.999 0 3.304 1.372 3.337 3.508l-2.158.03Z"/><path d="M54.611 2.446h-.002l-7.651-.023a1.08 1.08 0 0 1 .002-2.16h.003l7.65.024a1.08 1.08 0 0 1-.002 2.159Zm1.613 11.874h-.02a1.08 1.08 0 0 1-1.06-1.1l.19-9.875a1.08 1.08 0 0 1 1.08-1.06h.02a1.08 1.08 0 0 1 1.06 1.1l-.19 9.876a1.081 1.081 0 0 1-1.08 1.06Z"/><path d="M56.224 14.435h-.013l-11.938-.15a1.08 1.08 0 0 1-1.067-1.092 1.07 1.07 0 0 1 1.095-1.067l11.938.15a1.08 1.08 0 0 1 1.067 1.092 1.085 1.085 0 0 1-1.082 1.067Z"/><path d="M44.285 14.285h-.038a1.08 1.08 0 0 1-1.041-1.117l.353-9.9a1.08 1.08 0 1 1 2.16.076l-.354 9.9a1.081 1.081 0 0 1-1.08 1.041Zm46.003-7.737-1.737-1.283c1.221-1.658 3.086-1.938 4.75-.713l-1.283 1.737c-.699-.513-1.217-.434-1.73.26Zm10.204 5.922-1.913-1.007c.574-1.09.117-1.516-.404-1.79l1.006-1.913c1.804.947 2.317 2.796 1.311 4.71Z"/><path d="M99.113 10.036c-.175 0-.353-.044-.518-.132l-6.709-3.678a1.079 1.079 0 1 1 1.04-1.893l6.708 3.678a1.078 1.078 0 0 1-.521 2.025Zm-4.265 11.199a1.08 1.08 0 0 1-.937-1.616l4.892-8.58a1.08 1.08 0 0 1 1.877 1.07l-4.892 8.58c-.2.35-.564.546-.94.546Z"/><path d="M94.792 21.336a1.1 1.1 0 0 1-.528-.137l-10.412-5.842a1.08 1.08 0 1 1 1.056-1.885l10.412 5.842a1.08 1.08 0 0 1-.528 2.022Z"/><path d="M84.38 15.494a1.08 1.08 0 0 1-.927-1.63l5.045-8.522a1.08 1.08 0 1 1 1.86 1.102l-5.045 8.522a1.09 1.09 0 0 1-.933.528ZM.24 10.569c-.684-1.943.134-3.643 2.083-4.326l.716 2.037c-.818.287-1.047.76-.76 1.573l-2.04.716Zm10.765-4.806c-.58-1.087-1.19-.95-1.707-.676L8.282 3.18c1.795-.955 3.614-.34 4.628 1.567l-1.905 1.016Z"/><path d="M2.417 8.468a1.08 1.08 0 0 1-.49-2.042l6.815-3.475a1.079 1.079 0 0 1 1.453.473c.271.53.06 1.18-.473 1.453L2.907 8.35a1.095 1.095 0 0 1-.49.117Zm13.673 6.351c-.4 0-.783-.224-.97-.605L10.775 5.34a1.08 1.08 0 0 1 1.94-.95l4.344 8.873a1.08 1.08 0 0 1-.97 1.555Z"/><path d="M5.455 20.244a1.08 1.08 0 0 1-.483-2.047l10.689-5.322a1.08 1.08 0 1 1 .963 1.933L5.934 20.13a1.076 1.076 0 0 1-.48.114Z"/><path d="M5.455 20.244c-.407 0-.795-.229-.978-.622l-4.21-8.967a1.082 1.082 0 0 1 1.957-.92l4.209 8.967a1.082 1.082 0 0 1-.978 1.542Zm72.473 63.921a1.078 1.078 0 0 1-1.057-1.298L90.163 18.52a1.078 1.078 0 1 1 2.113.437L78.985 83.304a1.08 1.08 0 0 1-1.056.861Zm-52.666 16.574a1.4 1.4 0 0 1-1.351-1.044l-2.286-8.72a1.396 1.396 0 1 1 2.702-.706l2.286 8.72a1.395 1.395 0 0 1-1.351 1.75Zm49.745 0a1.397 1.397 0 0 1-1.344-1.778l2.457-8.72a1.395 1.395 0 1 1 2.687.757l-2.456 8.72a1.394 1.394 0 0 1-1.344 1.021ZM22.552 84.165a1.08 1.08 0 0 1-1.059-.871L8.88 19.2a1.08 1.08 0 0 1 2.119-.417l12.616 64.094a1.08 1.08 0 0 1-1.062 1.288ZM39.91 49.536a1.08 1.08 0 0 1-.825-.38l-26.67-31.498a1.08 1.08 0 1 1 1.648-1.394l26.67 31.497a1.08 1.08 0 0 1-.822 1.775Zm-.504-9.366a1.081 1.081 0 0 1-1.044-1.364l9.396-25.687a1.081 1.081 0 0 1 2.085.566l-9.396 25.688c-.13.483-.566.798-1.041.798Zm21.792.737a1.08 1.08 0 0 1-1.032-.756l-8.585-25.917a1.08 1.08 0 0 1 2.06-.647l8.586 25.916a1.08 1.08 0 0 1-1.03 1.404Zm-2.745 11.677a1.082 1.082 0 0 1-.833-1.768l28.703-34.799a1.083 1.083 0 0 1 1.669 1.377l-28.703 34.8a1.093 1.093 0 0 1-.836.39Zm14.733 32.275H27.211a1.396 1.396 0 0 1-1.397-1.397v-6.866a12.49 12.49 0 0 1 3.683-8.89l5.883-5.883a9.32 9.32 0 0 1 6.632-2.746h16.376c2.504 0 4.859.975 6.632 2.746l5.883 5.883a12.49 12.49 0 0 1 3.683 8.89v6.866a1.4 1.4 0 0 1-1.4 1.397Zm-44.578-2.794h43.181v-5.47a9.714 9.714 0 0 0-2.863-6.913l-5.883-5.883a6.54 6.54 0 0 0-4.655-1.928H42.011a6.551 6.551 0 0 0-4.656 1.928l-5.883 5.883a9.715 9.715 0 0 0-2.863 6.914v5.469h-.002Z"/><path d="M50.199 56.123c-7.108 0-12.891-5.784-12.891-12.891 0-7.108 5.783-12.891 12.89-12.891 7.108 0 12.892 5.783 12.892 12.89 0 7.108-5.784 12.892-12.891 12.892Zm0-22.988c-5.568 0-10.097 4.529-10.097 10.097s4.529 10.096 10.097 10.096c5.567 0 10.096-4.529 10.096-10.096 0-5.568-4.529-10.097-10.096-10.097Zm32.182 51.708H17.332a1.079 1.079 0 1 1 0-2.159h65.05a1.079 1.079 0 1 1 0 2.16ZM56.838 91.49H17.221a1.079 1.079 0 1 1 0-2.159h39.62a1.079 1.079 0 1 1-.003 2.16Zm25.602-.086H63.369a1.079 1.079 0 1 1 0-2.159h19.07a1.079 1.079 0 1 1 0 2.16Z"/><path d="M82.537 91.313c-.3 0-.564-.127-.73-.275-.373-.335-.528-.957-.104-1.5.57-.727 1.705-2.668.005-4.964a1.08 1.08 0 1 1 1.738-1.285c2.055 2.773 1.4 5.628.071 7.434-.05.09-.114.176-.193.25-.26.248-.534.34-.787.34Zm-65.438.084c-.254 0-.529-.092-.788-.34a1.07 1.07 0 0 1-.193-.252c-1.333-1.817-1.978-4.664.071-7.433a1.082 1.082 0 0 1 1.512-.226c.48.356.579 1.032.226 1.512-1.702 2.296-.564 4.236.005 4.963.424.544.27 1.166-.104 1.501a1.126 1.126 0 0 1-.73.275Z"/></g></svg>
